packages/core/src/svgs/tokens/mono/BSCPAD.svg

<svg width="24" height="24" viewBox="0 0 24 24" fill="none" xmlns="http://www.w3.org/2000/svg">
<path fill-rule="evenodd" clip-rule="evenodd" d="M7.88048 2H14.351C15.5384 1.99908 16.6916 2.39738 17.6255 3.13087C18.5593 3.86436 19.2193 4.89046 19.4996 6.04431C19.7799 7.19814 19.6642 8.41271 19.171 9.49279C18.6779 10.573 17.8359 11.4559 16.7804 12C17.8359 12.544 18.6779 13.4269 19.171 14.5071C19.6642 15.5873 19.7799 16.8019 19.4996 17.9556C19.2193 19.1095 18.5593 20.1357 17.6255 20.8692C16.6916 21.6026 15.5384 22.0008 14.351 22H7.88048C6.94442 22 6.04671 21.6282 5.38481 20.9662C4.72292 20.3044 4.35107 19.4066 4.35107 18.4706V5.52941C4.35107 4.59335 4.72292 3.69563 5.38481 3.03374C6.04671 2.37184 6.94442 2 7.88048 2ZM7.58636 3.7647C7.19634 3.7647 6.82229 3.91963 6.54651 4.19543C6.27072 4.47122 6.11579 4.84527 6.11579 5.23529C6.11579 5.88235 6.64519 6.41175 7.29225 6.41175H9.05695V5.23529C9.05695 4.84527 8.90202 4.47122 8.62623 4.19543C8.35045 3.91963 7.97638 3.7647 7.58636 3.7647ZM12.2335 6.41175C12.4277 6.07533 12.7274 5.8124 13.0864 5.66373C13.4453 5.51507 13.8432 5.48899 14.2184 5.58953C14.5937 5.69008 14.9253 5.91162 15.1618 6.21983C15.3983 6.52802 15.5263 6.90564 15.5263 7.29411C15.5263 7.68258 15.3983 8.0602 15.1618 8.36839C14.9253 8.67659 14.5937 8.89814 14.2184 8.99868C13.8432 9.09923 13.4453 9.07315 13.0864 8.92449C12.7274 8.77582 12.4277 8.51289 12.2335 8.17647H10.8217V11.1176H14.204C15.1791 11.1176 16.1142 10.7303 16.8036 10.0409C17.4931 9.35128 17.8805 8.41622 17.8805 7.44117C17.8805 6.46611 17.4931 5.53099 16.8036 4.84152C16.1142 4.15205 15.1791 3.7647 14.204 3.7647H10.757C10.6629 3.7647 10.5981 3.88235 10.6393 3.96471C10.7158 4.15881 10.8217 4.49411 10.8217 4.94117V6.41175H12.2335ZM9.05695 8.17647H7.29225C6.70402 8.17647 6.11579 7.78823 6.11579 7.78823V16.1177C6.11579 16.1177 6.70402 15.8235 7.29225 15.8235H9.05695V8.17647ZM6.11579 18.7646C6.11579 18.1176 6.64519 17.5882 7.29225 17.5882H9.05695V18.7646C9.05695 19.1547 8.90202 19.5287 8.62623 19.8046C8.35045 20.0804 7.97638 20.2353 7.58636 20.2353C7.19634 20.2353 6.82229 20.0804 6.54651 19.8046C6.27072 19.5287 6.11579 19.1547 6.11579 18.7646ZM10.8217 19.0588V17.5882H12.2335C12.4277 17.9246 12.7274 18.1876 13.0864 18.3363C13.4453 18.4849 13.8432 18.511 14.2184 18.4104C14.5937 18.3099 14.9253 18.0884 15.1618 17.7801C15.3983 17.472 15.5263 17.0944 15.5263 16.7058C15.5263 16.3174 15.3983 15.9398 15.1618 15.6315C14.9253 15.3234 14.5937 15.1018 14.2184 15.0012C13.8432 14.9008 13.4453 14.9268 13.0864 15.0755C12.7274 15.2241 12.4277 15.4871 12.2335 15.8235H10.8217V12.8823H14.204C15.1791 12.8823 16.1142 13.2696 16.8036 13.9592C17.4931 14.6486 17.8805 15.5837 17.8805 16.5588C17.8805 17.5339 17.4931 18.469 16.8036 19.1584C16.1142 19.848 15.1791 20.2353 14.204 20.2353H10.7393C10.6452 20.2353 10.5864 20.1294 10.6217 20.047C10.7099 19.847 10.8217 19.5 10.8217 19.0588Z" fill="white"/>
<path d="M6.11621 5.23511V7.78805C6.11621 7.78805 6.70444 8.17629 7.29268 8.17629V6.41157C6.98066 6.41157 6.68141 6.28763 6.46079 6.06699C6.24015 5.84637 6.11621 5.54713 6.11621 5.23511ZM10.8221 8.17629H9.05737V9.05863H10.8221V8.17629ZM11.7045 11.1174V12.8821H10.8221V11.1174H11.7045ZM9.05737 18.4704H10.8221V17.588H9.05737V18.4704ZM7.29268 15.8234V17.588C7.03151 17.5876 6.7776 17.6741 6.57099 17.8339C6.36438 17.9935 6.21679 18.2175 6.1515 18.4704H6.11621V16.1175C6.11621 16.1175 6.70444 15.8234 7.29268 15.8234ZM10.2338 21.9998H7.73385C8.31478 21.9758 8.87934 21.8002 9.37158 21.4907C9.86377 21.1811 10.2665 20.7483 10.5398 20.2351H11.4691C11.2104 20.7821 10.7632 21.4821 10.2338 21.9998Z" fill="white"/>
</svg>

<svg xmlns="http://www.w3.org/2000/svg" width="24" height="24" fill="none" viewBox="0 0 24 24">
    <path fill="#fff" fill-rule="evenodd" d="M7.88 2h6.471a5.295 5.295 0 0 1 2.43 10 5.294 5.294 0 0 1-2.43 10h-6.47a3.53 3.53 0 0 1-3.53-3.53V5.53A3.53 3.53 0 0 1 7.881 2m-.294 1.765a1.47 1.47 0 0 0-1.47 1.47c0 .647.53 1.177 1.176 1.177h1.765V5.235a1.47 1.47 0 0 0-1.47-1.47m4.647 2.647a1.764 1.764 0 1 1 0 1.764h-1.411v2.942h3.382a3.676 3.676 0 1 0 0-7.353h-3.447c-.094 0-.159.117-.118.2.077.194.183.53.183.976v1.47zM9.058 8.176H7.292c-.588 0-1.176-.388-1.176-.388v8.33s.588-.294 1.176-.294h1.765zM6.116 18.765c0-.647.53-1.177 1.176-1.177h1.765v1.177a1.471 1.471 0 0 1-2.941 0m4.706.294v-1.47h1.412a1.764 1.764 0 1 0 0-1.765h-1.412v-2.942h3.382a3.676 3.676 0 1 1 0 7.353h-3.465c-.094 0-.153-.106-.117-.188.088-.2.2-.547.2-.988" clip-rule="evenodd"/>
    <path fill="#fff" d="M6.116 5.235v2.553s.588.388 1.177.388V6.412a1.176 1.176 0 0 1-1.177-1.177m4.706 2.941H9.057v.883h1.765zm.883 2.941v1.765h-.883v-1.765zM9.057 18.47h1.765v-.882H9.057zm-1.764-2.647v1.765a1.18 1.18 0 0 0-1.141.882h-.036v-2.352s.588-.295 1.177-.295M10.233 22h-2.5a3.34 3.34 0 0 0 2.807-1.765h.93c-.26.547-.707 1.247-1.236 1.765"/>
</svg>
